X:1
T:Virga tua
T:Matthias Pipelare
T:Source :  Bicinia---Tomus I---Wittemberg---G.Rhau---1545. Editor : André Vierendeels (18/06/17).
T:Notes : Original clefs : G3,  C4 Original note values have been halved Editorial accidentals above the staff Square brackets indicate ligatures Dotted brackets indicate black notes
T:Virga tua
T:©
T:©
T:©
C:Matthias Pipelare
Z:©
%%score [ 1 2 ]
L:1/8
Q:1/4=120
M:2/2
K:C
V:1 treble nm="Soprano" snm="S"
V:2 treble-8 nm="Tenor" snm="T"
V:1
 A8 | F4 A4- | A2 GF E4- | E2 F2 G2 ED | D4 E2 F2- | FE D4 C2 | D8- | D8 | z8 | D8 | C4 D2 F2- | %11
w: Vir-||||||ga|_||tu-||
 F2 G2 A4- | A8 | c6 BA | G4 A4- | A8 | G4 A4- | A2 GF G4 | F4 _B4- | B4 A4 | G4 A2 B2- | %21
w: ||||||||||
 BA A4 G2 | A8 | z8 | D4 A4 | z4 A4- | A4 B4 | c4 B4 | A4 B2 c2- | c2 BA G4 | A8 | z4 A4- | A4 G4 | %33
w: |a||et _|ba-||||* * * cu-|lus|tu-||
 A4 c4- | c2 BA G4- | G4 c4- | c2 B2 A2 GF | G4 F4- | F2 G2 A2 B2 | c2 BA BAGF | E2 A4 G2 | A4 z4 | %42
w: ||||||||us|
 A4 F2 A2- | A2 GF E2 F2- | F2 ED C4- | C2 D2 E2 F2 | G2 A3 GFE | D2 G4 F2 | G8 | z8 | z2 G2 G4 | %51
w: ip- * *||* * * sa|_ _ _ _|||me,||con- so-|
 A2 c4 BA | G4 F4 | A4 B2 c2- | cB A4 G2 | A4 D4- | D4 D4 | C4 D2 F2- | F2 G2 A4- | A2 GF E4- | %60
w: la- * * *|||* * * ta|sunt, con-|* so-|||* * * la-|
 E2 F2 GFED | C3 D E2 F2- | FE D4 C2 | D8 |] %64
w: |ta _ _ _|_ _ _ _|sunt.|
V:2
 z8 | A8 | F4 A4- | A2 GF E2 F2 | G6 F2 | D4 E4 |"^#" D8 | z4 D4- | D4 C4 | D2 F4 G2 | A4 B4- | %11
w: |Vir-|||||ga|tu-||||
 B2 AG F4 | f8 | e4 c4- | c8 | d8 | e4 c2 f2- | f2 ed e4 | d8- | d4 c4 | e4 f2 d2- | dA c2 B4 | %22
w: |||||||||||
 A8- | A8 | z8 | D4 A4 | A4 G4 | A4 B4 | c2 BA G2 A2- | A2 c2 B4 | A8 | G4 c4- | c2 BA B2 AG | %33
w: a|_||et _|ba- *||||cu-|lus tu-||
 F4 A4- | A4 B4 | c8- |"^#" c4 d4 | e4 d2 d2- | d2 cB c2 d2 | e2 dc d2 e2- | e2 dc B4 | A8 | z8 | %43
w: ||||||||us,||
 z4 A4 | F2 A4 GF | E2 F2 G2 A2 | B2 c2 d3 c | B2 c2 A4 | G4 z2 G2 | G4 A2 c2- | c2 BA G4 | %51
w: ip-||||* * sa|me con-|so- la- *||
 F3 G AF f2- | f2 e2 f2 ed | c2 d4 c2 | A4 B4 | A4 F2 G2- | G2 FE D2 F2 | E4 D4- | D2 E2 F2 G2 | %59
w: |||ta _|_ _ _||||
"^#" A2 B2 c4- | c2 BA G2 A2- | A2 GF E2 D2 | F2 G2 E4 | D8 |] %64
w: ||||sunt|

